X: 790
T: Ballahaboy Fair.
B:O'Neill's Music of Ireland
N:O'Neill's - 790
Z:Transcribed by Stephen Foy (shf@access.digex.net)
Z:abc 1.6
R:Jig
M:6/8
K:D
f/e/|d2 A AFA|BGB A2 f/e/|d2 A AFA|~g3 f2 d|\
d2 A AFA|Bdg b2 b/b/|aba agf|e3 d2:|
||a|fga bag|fga bag|fga fga|efg gfe|\
fga bag|fga baa|aba agf|e3 d2:|


